!!!COM: Augusta Holme\s
!!!CNT: Francais
!!!TXO: Francais
!!!OTL: "A\ Trianon"
!!!LYR: 
!!!OPR: 
!!!OPS: Op. 
!!!ONM: No. 
!!!ENC: Alyona Dzerbina
!!!YOR: Augusta Holme\s, A Trianon
!!!YOR: Da Capo Press, New York, 1984
!!!ODT: 1896/
!!NB: Vocal melody and text encoded.
**kern	**text
*staff1	*staff1
=1-	=1-
*clefG2	*
*k[f#c#]	*
*M3/4	*
2.r	.
=2	=2
2.r	.
=3	=3
2.r	.
=4	=4
2.r	.
=5	=5
2.r	.
=6	=6
2.r	.
=7	=7
2.r	.
=8	=8
2.r	.
=9	=9
2.r	.
=10	=10
2.r	.
=11	=11
2.r	.
=12	=12
2.r	.
=13	=13
2.r	.
=14	=14
2.r	.
=15	=15
2.r	.
=16	=16
2.r	.
=17	=17
{8dd	{Sui-
8cc#	-vez-
4dd	-moi,
4a	Mar-
=18	=18
(cc#q	|
16b	-qui-
16a	|
16b	|
16cc#)	|
4b	-se,
4a	Par-
=19	=19
8dd	-mi
8cc#	les
8dd	par-
8cc#	-fums
8dd	et
8a	la
=20	=20
(cc#q	bri-
16b	|
16a	|
16b	|
16cc#)	|
4b}	-se,}
{8a	{Vers
8a	le
=21	=21
(4.dd	Tem-
8ff#)	|
8ee	-ple
8dd	d'A-
=22	=22
8cc#	-mour
8ee	Qui
8dd	nous
8a	sou-
8f#	-rit
8a	aux
=23	=23
8g	der-
8b	-niers
4a	rais
4g	du
=24	=24
(f#q	|
gq	|
4f#	jour,
2e)}	|}
=25	=25
{8b	{Sui-
8a	-vez-
4b	-moi,
4cc#	Ber-
=26	=26
(2dd	-ge\-
8a)	-re,
8a	Par-
=27	=27
8b	-mi
8a	la
8b	mousse
8g	et
8cc#	la
8a	fou-
=28	=28
(4dd	-ge\-
8a)}	-re,}
8r	.
{8a	{Et
8a	les
=29	=29
8dd	fleurs
8dd	s'ouv-
4ff#	-rant
8ee	sous
8dd	vos
=30	=30
8cc#	pas,
8ee	Di-
8e}	-ront:}
8r	.
{(4b	{"d'A-
=31	=31
8cc#	-mour,
8ee	la
4e	me\re
4b	Est
=32	=32
8cc#	plus
8ee	se/-
4e	-ve\
4b	|
=33	=33
8cc#)}	-re,}
{(8ee	{Et
8a	Flo-
8cc#	|
8e	|
8a	|
=34	=34
8f#)	-re
(8dd	a
4cc#	moins
8b	d'ap-
cc#q	|
bq	|
16a	|
16b	|
=35	=35
2a)}	-pas!"}
8r	.
{8a	{Ve-
=36	=36
*k[b-]	*
8cc	-nez
8cc	sous
8cc	l'au-
8cc	-be/-
8cc	-pi-
8cc	-ne
=37	=37
(ccq	ro-
16b-	|
16a	|
16b-	|
16cc)	|
[4a	-se,
8a]}	|}
{(8f	{Moins
=38	=38
ccq	ro
8b-	|
8a	-se
8b-	que
8dd	ta
8cc	le\vre
8b-	e/-
=39	=39
aq	-clo-
b-q	|
4a	|
8g)}	-se!}
8r	.
{8cc	{Per-
8cc	-met-
=40	=40
8dd	-tez
8dd	quen-
4ff	-fin
8ee	je
8dd	re-
=41	=41
(4cc#	-po-
4.a)}	-se}
{8a	{Mon
=42	=42
8dd	front
8g#	tout
8dd	pre\s
8g#	de
(8dd	vo-
8g#)	-tre
=43	=43
2a}	coeur!}
4r	.
=44	=44
2.r	.
=45	=45
2.r	.
=46	=46
2.r	.
=47	=47
{8a	{Vo-
8a	-tre
4a	sein
8a	bat
8a	plus
=48	=48
(16b-	vi-
16a	|
16b-	|
16cc	|
4b-)}	-te...}
8r	.
{8b-	{En
=49	=49
8cc#	vain
8cc#	vo-
8cc#	-tre
8cc#	re-
8cc#	-gard
8cc#	m'e-
=50	=50
(16dd	-vi-
16cc#	|
16dd	|
16ee	|
4dd)}	-te...}
{4dd	{Ta
=51	=51
8ff	main
8ff	si
8ff	fre^le
8ff	est
8ee	trop
8dd	pe-
=52	=52
4cc	-ti-
4a}	-te}
{8a	{Pour
8dd	ca-
=53	=53
4f	-cher
(4g	ta-
aq	|
gq	|
8f)	|
8g	rou-
=54	=54
2a}	-geur!}
4r	.
=55	=55
2.r	.
=56	=56
2.r	.
=57	=57
2.r	.
=58	=58
*k[f#c#]	*
{8dd	{Ve-
8cc#	-nez
8dd	done,
8r	.
4a	Mar-
=59	=59
(cc#q	-que-
16b	|
16a	|
16b	|
16cc#	|
4b)}	-se!}
{4a	{Gou^-
=60	=60
8dd	-tons
8cc#	en-
8dd	-sem-
8cc#	-ble
8dd	l'heure
8a	ex-
=61	=61
(cc#q	-qui-
16b	|
16a	|
16b	|
16cc#	|
4b)}	-se}
{8.a	{Car
16a	l'A-
=62	=62
4.dd	-mour
8ff#	vous
8ee	a
8dd	con-
=63	=63
(8cc#	-qui-
8ee	|
8dd	|
8a	|
16f#)}	-se}
16r	.
{8a	{Et
=64	=64
4b	c'est
4r	.
4dd	la
=65	=65
(8dd	fin
16cc#	|
16b	|
4.cc#)	|
8dd	du
=66	=66
2dd}	jour!}
4r	.
=67	=67
2.r	.
=68	=68
2.r	.
=69	=69
2.r	.
=70	=70
2.r	.
=71	=71
2.r	.
=72	=72
2.r	.
=73	=73
2.r	.
==	==
*-	*-
